apps/static/images/Holis.svg

<svg width="125" height="42" viewBox="0 0 125 42" fill="none" xmlns="http://www.w3.org/2000/svg">
<path d="M32.35 5.75V41H22.5501V26.85H10.6V41H0.800049V5.75H10.6V19H22.5501V5.75H32.35Z" fill="url(#paint0_linear)"/>
<path d="M51.0083 41.35C48.2083 41.35 45.6916 40.7667 43.4583 39.6C41.2583 38.4333 39.5249 36.7667 38.2583 34.6C36.9916 32.4333 36.3583 29.8833 36.3583 26.95C36.3583 24.05 36.9916 21.5167 38.2583 19.35C39.5583 17.1833 41.3083 15.5167 43.5083 14.35C45.7416 13.1833 48.2583 12.6 51.0583 12.6C53.8583 12.6 56.3583 13.1833 58.5583 14.35C60.7916 15.5167 62.5416 17.1833 63.8083 19.35C65.1083 21.5167 65.7583 24.05 65.7583 26.95C65.7583 29.85 65.1083 32.4 63.8083 34.6C62.5416 36.7667 60.7916 38.4333 58.5583 39.6C56.3249 40.7667 53.8083 41.35 51.0083 41.35ZM51.0083 32.85C52.3749 32.85 53.5083 32.35 54.4083 31.35C55.3416 30.3167 55.8083 28.85 55.8083 26.95C55.8083 25.05 55.3416 23.6 54.4083 22.6C53.5083 21.6 52.3916 21.1 51.0583 21.1C49.7249 21.1 48.6083 21.6 47.7083 22.6C46.8083 23.6 46.3583 25.05 46.3583 26.95C46.3583 28.8833 46.7916 30.35 47.6583 31.35C48.5249 32.35 49.6416 32.85 51.0083 32.85Z" fill="url(#paint1_linear)"/>
<path d="M79.5454 4V41H69.7454V4H79.5454Z" fill="url(#paint2_linear)"/>
<path d="M90.0762 10.35C88.3429 10.35 86.9429 9.88333 85.8762 8.95C84.8429 7.98333 84.3262 6.78333 84.3262 5.35C84.3262 3.88333 84.8429 2.66667 85.8762 1.7C86.9429 0.733334 88.3429 0.25 90.0762 0.25C91.7762 0.25 93.1429 0.733334 94.1762 1.7C95.2429 2.66667 95.7762 3.88333 95.7762 5.35C95.7762 6.78333 95.2429 7.98333 94.1762 8.95C93.1429 9.88333 91.7762 10.35 90.0762 10.35ZM94.9262 12.95V41H85.1262V12.95H94.9262Z" fill="url(#paint3_linear)"/>
<path d="M112.457 41.35C109.924 41.35 107.657 40.9333 105.657 40.1C103.69 39.2333 102.124 38.0667 100.957 36.6C99.8237 35.1 99.1904 33.4167 99.0571 31.55H108.557C108.69 32.45 109.107 33.15 109.807 33.65C110.507 34.15 111.374 34.4 112.407 34.4C113.207 34.4 113.84 34.2333 114.307 33.9C114.774 33.5667 115.007 33.1333 115.007 32.6C115.007 31.9 114.624 31.3833 113.857 31.05C113.09 30.7167 111.824 30.35 110.057 29.95C108.057 29.55 106.39 29.1 105.057 28.6C103.724 28.1 102.557 27.2833 101.557 26.15C100.59 25.0167 100.107 23.4833 100.107 21.55C100.107 19.8833 100.557 18.3833 101.457 17.05C102.357 15.6833 103.674 14.6 105.407 13.8C107.174 13 109.29 12.6 111.757 12.6C115.424 12.6 118.307 13.5 120.407 15.3C122.507 17.1 123.724 19.4667 124.057 22.4H115.207C115.04 21.5 114.64 20.8167 114.007 20.35C113.407 19.85 112.59 19.6 111.557 19.6C110.757 19.6 110.14 19.75 109.707 20.05C109.307 20.35 109.107 20.7667 109.107 21.3C109.107 21.9667 109.49 22.4833 110.257 22.85C111.024 23.1833 112.257 23.5333 113.957 23.9C115.99 24.3333 117.674 24.8167 119.007 25.35C120.374 25.8833 121.557 26.75 122.557 27.95C123.59 29.1167 124.107 30.7167 124.107 32.75C124.107 34.3833 123.624 35.85 122.657 37.15C121.724 38.45 120.374 39.4833 118.607 40.25C116.874 40.9833 114.824 41.35 112.457 41.35Z" fill="url(#paint4_linear)"/>
<defs>
<linearGradient id="paint0_linear" x1="-322.261" y1="-237.251" x2="399.603" y2="-0.226093" gradientUnits="userSpaceOnUse">
<stop stop-color="#9B51E0"/>
<stop offset="1" stop-color="#2F80ED"/>
</linearGradient>
<linearGradient id="paint1_linear" x1="-322.261" y1="-237.251" x2="399.603" y2="-0.226093" gradientUnits="userSpaceOnUse">
<stop stop-color="#9B51E0"/>
<stop offset="1" stop-color="#2F80ED"/>
</linearGradient>
<linearGradient id="paint2_linear" x1="-322.261" y1="-237.251" x2="399.603" y2="-0.226093" gradientUnits="userSpaceOnUse">
<stop stop-color="#9B51E0"/>
<stop offset="1" stop-color="#2F80ED"/>
</linearGradient>
<linearGradient id="paint3_linear" x1="-322.261" y1="-237.251" x2="399.603" y2="-0.226093" gradientUnits="userSpaceOnUse">
<stop stop-color="#9B51E0"/>
<stop offset="1" stop-color="#2F80ED"/>
</linearGradient>
<linearGradient id="paint4_linear" x1="-322.261" y1="-237.251" x2="399.603" y2="-0.226093" gradientUnits="userSpaceOnUse">
<stop stop-color="#9B51E0"/>
<stop offset="1" stop-color="#2F80ED"/>
</linearGradient>
</defs>
</svg>

<svg width="125" height="42" fill="none" xmlns="http://www.w3.org/2000/svg"><path d="M32.35 5.75V41h-9.8V26.85H10.6V41H.8V5.75h9.8V19h11.95V5.75h9.8z" fill="url(#paint0_linear)"/><path d="M51.008 41.35c-2.8 0-5.316-.583-7.55-1.75-2.2-1.167-3.933-2.833-5.2-5-1.266-2.167-1.9-4.717-1.9-7.65 0-2.9.634-5.433 1.9-7.6 1.3-2.167 3.05-3.833 5.25-5 2.234-1.167 4.75-1.75 7.55-1.75s5.3.583 7.5 1.75a12.859 12.859 0 015.25 5c1.3 2.167 1.95 4.7 1.95 7.6 0 2.9-.65 5.45-1.95 7.65a12.859 12.859 0 01-5.25 5c-2.233 1.167-4.75 1.75-7.55 1.75zm0-8.5c1.367 0 2.5-.5 3.4-1.5.934-1.033 1.4-2.5 1.4-4.4 0-1.9-.466-3.35-1.4-4.35-.9-1-2.016-1.5-3.35-1.5-1.333 0-2.45.5-3.35 1.5-.9 1-1.35 2.45-1.35 4.35 0 1.933.434 3.4 1.3 4.4.867 1 1.984 1.5 3.35 1.5z" fill="url(#paint1_linear)"/><path d="M79.545 4v37h-9.8V4h9.8z" fill="url(#paint2_linear)"/><path d="M90.076 10.35c-1.733 0-3.133-.467-4.2-1.4-1.033-.967-1.55-2.167-1.55-3.6 0-1.467.517-2.683 1.55-3.65 1.067-.967 2.467-1.45 4.2-1.45 1.7 0 3.067.483 4.1 1.45 1.067.967 1.6 2.183 1.6 3.65 0 1.433-.533 2.633-1.6 3.6-1.033.933-2.4 1.4-4.1 1.4zm4.85 2.6V41h-9.8V12.95h9.8z" fill="url(#paint3_linear)"/><path d="M112.457 41.35c-2.533 0-4.8-.417-6.8-1.25-1.967-.867-3.533-2.033-4.7-3.5a9.31 9.31 0 01-1.9-5.05h9.5c.133.9.55 1.6 1.25 2.1s1.567.75 2.6.75c.8 0 1.433-.167 1.9-.5.467-.333.7-.767.7-1.3 0-.7-.383-1.217-1.15-1.55-.767-.333-2.033-.7-3.8-1.1-2-.4-3.667-.85-5-1.35-1.333-.5-2.5-1.317-3.5-2.45-.967-1.133-1.45-2.667-1.45-4.6 0-1.667.45-3.167 1.35-4.5.9-1.367 2.217-2.45 3.95-3.25 1.767-.8 3.883-1.2 6.35-1.2 3.667 0 6.55.9 8.65 2.7 2.1 1.8 3.317 4.167 3.65 7.1h-8.85c-.167-.9-.567-1.583-1.2-2.05-.6-.5-1.417-.75-2.45-.75-.8 0-1.417.15-1.85.45-.4.3-.6.717-.6 1.25 0 .667.383 1.183 1.15 1.55.767.333 2 .683 3.7 1.05 2.033.433 3.717.917 5.05 1.45 1.367.533 2.55 1.4 3.55 2.6 1.033 1.167 1.55 2.767 1.55 4.8 0 1.633-.483 3.1-1.45 4.4-.933 1.3-2.283 2.333-4.05 3.1-1.733.733-3.783 1.1-6.15 1.1z" fill="url(#paint4_linear)"/><defs><linearGradient id="paint0_linear" x1="-322.261" y1="-237.251" x2="399.603" y2="-.226" gradientUnits="userSpaceOnUse"><stop stop-color="#9B51E0"/><stop offset="1" stop-color="#2F80ED"/></linearGradient><linearGradient id="paint1_linear" x1="-322.261" y1="-237.251" x2="399.603" y2="-.226" gradientUnits="userSpaceOnUse"><stop stop-color="#9B51E0"/><stop offset="1" stop-color="#2F80ED"/></linearGradient><linearGradient id="paint2_linear" x1="-322.261" y1="-237.251" x2="399.603" y2="-.226" gradientUnits="userSpaceOnUse"><stop stop-color="#9B51E0"/><stop offset="1" stop-color="#2F80ED"/></linearGradient><linearGradient id="paint3_linear" x1="-322.261" y1="-237.251" x2="399.603" y2="-.226" gradientUnits="userSpaceOnUse"><stop stop-color="#9B51E0"/><stop offset="1" stop-color="#2F80ED"/></linearGradient><linearGradient id="paint4_linear" x1="-322.261" y1="-237.251" x2="399.603" y2="-.226" gradientUnits="userSpaceOnUse"><stop stop-color="#9B51E0"/><stop offset="1" stop-color="#2F80ED"/></linearGradient></defs></svg>
